icons/1_Primary/Runbox.svg

<svg xmlns="http://www.w3.org/2000/svg" width="1024" height="1024" fill="none">
   <g clip-path="url(#a)">
      <path fill="#728DBE" d="M512 1024c282.77 0 512-229.23 512-512S794.77 0 512 0 0 229.23 0 512s229.23 512 512 512Z"/>
      <path fill="#fff" d="M507.76 433.78h20.42c.11 29.18 0 58.36 0 87.53 0 2.54-.2 5.11.3 7.62a8.004 8.004 0 0 0 7.54 5.47c12.23.09 24.45 0 36.68 0 2.36 0 4.94-.42 6.6-2.24a8.855 8.855 0 0 0 2.26-6.6v-26.09a10.362 10.362 0 0 0-1.15-5.61 7.922 7.922 0 0 0-7-3.59h-36.89v-20.49h36.95c8.4.15 16.93 3.61 22.41 10.11a28.125 28.125 0 0 1 6.2 17.48c.09 6.65 0 13.31 0 20-.17 5.11.42 10.3-.8 15.32a28.269 28.269 0 0 1-12 18 29.12 29.12 0 0 1-15 4.28h-36a31.764 31.764 0 0 1-19.34-5.59 26.005 26.005 0 0 1-10.58-16.63 54.198 54.198 0 0 1-.6-10.67c.007-29.454.007-58.887 0-88.3ZM195 498.07v56.8h20.46V498.8c0-2.27.38-4.75 2.08-6.4 1.7-1.65 4.11-2.17 6.38-2.16h46v-20.49h-46.08c-8.29.09-16.67 3.42-22.24 9.67a28.002 28.002 0 0 0-6.6 18.65Zm87.08 19.7a38.005 38.005 0 0 0 5.27 19.59c4.92 8.38 13.72 13.92 23 16.32 6 1.61 12.22 1.15 18.35 1.2h38a10.122 10.122 0 0 0 9.73-10.3v-74.79h-20.48v64.64h-36.4a16.78 16.78 0 0 1-17-17.29V469.8h-20.46c0 15.973.004 31.963.01 47.97h-.02Zm113.69 37.1h20.48v-64.62h33.4A22.066 22.066 0 0 1 460 492c5.94 2.54 9.6 9 9.59 15.32v47.59h20.48v-47.63a37.666 37.666 0 0 0-5.74-20.68c-5.1-8-13.7-13.38-22.81-15.66-5.74-1.48-11.69-1.11-17.56-1.15h-37.89c-5.39-.17-10.41 4.55-10.3 10 0 25.01.03 50.04.02 75.08h-.02Zm222.27-58.68a1618.16 1618.16 0 0 0 0 32.08A26.88 26.88 0 0 0 628.69 549a31.527 31.527 0 0 0 19.25 5.85h35.23a31.123 31.123 0 0 0 20-7.11c6-5.1 9-13 9.09-20.77.06-9.4 0-18.8 0-28.2-.08-9.12-4-18.55-11.58-23.9a27.356 27.356 0 0 0-16.2-5.11c-12.42-.06-24.84 0-37.25 0a34.494 34.494 0 0 0-10.92 1.82 27.007 27.007 0 0 0-18.25 24.61h-.02Zm29.9-6h35.83c2.42 0 5.08.72 6.58 2.77 1.38 1.86 1.49 4.25 1.5 6.48v26.7c0 2.31-.56 4.82-2.36 6.4-1.8 1.58-4.14 1.84-6.36 1.82h-35.86c-2.39 0-5-.39-6.73-2.19-1.73-1.8-2.11-4.32-2.07-6.67v-27.44c-.14-3.15 1.67-6.47 4.82-7.36a14.583 14.583 0 0 1 4.71-.47l-.06-.04Zm111.44 19.46c-13.66 15.15-27.59 30.06-41.27 45.18h28.18c9.14-9.86 18.16-19.82 27.3-29.68 9.06 9.9 18.134 19.786 27.22 29.66H829a36153.523 36153.523 0 0 0-41.39-44.94c12.247-13.407 24.5-26.794 36.76-40.16h-28.15c-7.62 8.2-15.18 16.46-22.8 24.66-7.54-8.22-15.083-16.44-22.63-24.66h-28c12.21 13.36 24.36 26.72 36.62 39.98l-.03-.04Z"/>
   </g>
   <defs>
      <clipPath id="a">
         <path fill="#fff" d="M0 0h1024v1024H0z"/>
      </clipPath>
   </defs>
</svg>

<svg width="1024" height="1024" viewBox="0 0 1024 1024" fill="none" xmlns="http://www.w3.org/2000/svg">
<g clip-path="url(#clip0_2_3378)">
<path d="M512 1024C794.77 1024 1024 794.77 1024 512C1024 229.23 794.77 0 512 0C229.23 0 0 229.23 0 512C0 794.77 229.23 1024 512 1024Z" fill="#728DBE"/>
<path d="M507.76 433.78H528.18C528.29 462.96 528.18 492.14 528.18 521.31C528.18 523.85 527.98 526.42 528.48 528.93C529.009 530.515 530.02 531.894 531.372 532.875C532.724 533.856 534.35 534.389 536.02 534.4C548.25 534.49 560.47 534.4 572.7 534.4C575.06 534.4 577.64 533.98 579.3 532.16C580.104 531.27 580.72 530.226 581.108 529.092C581.496 527.957 581.65 526.756 581.56 525.56V499.47C581.711 497.529 581.313 495.585 580.41 493.86C579.657 492.703 578.615 491.764 577.388 491.134C576.16 490.505 574.789 490.207 573.41 490.27H536.52V469.78H573.47C581.87 469.93 590.4 473.39 595.88 479.89C599.864 484.848 602.049 491.01 602.08 497.37C602.17 504.02 602.08 510.68 602.08 517.37C601.91 522.48 602.5 527.67 601.28 532.69C599.825 540.043 595.509 546.518 589.28 550.69C584.763 553.454 579.576 554.934 574.28 554.97H538.28C531.398 555.253 524.61 553.291 518.94 549.38C513.368 545.44 509.568 539.467 508.36 532.75C507.809 529.222 507.608 525.648 507.76 522.08C507.767 492.626 507.767 463.193 507.76 433.78ZM195 498.07V554.87H215.46V498.8C215.46 496.53 215.84 494.05 217.54 492.4C219.24 490.75 221.65 490.23 223.92 490.24H269.92V469.75H223.84C215.55 469.84 207.17 473.17 201.6 479.42C197.204 484.626 194.858 491.257 195 498.07ZM282.08 517.77C282.029 524.657 283.851 531.428 287.35 537.36C292.27 545.74 301.07 551.28 310.35 553.68C316.35 555.29 322.57 554.83 328.7 554.88H366.7C369.348 554.778 371.849 553.643 373.669 551.717C375.488 549.791 376.479 547.229 376.43 544.58V469.79H355.95V534.43H319.55C317.285 534.461 315.036 534.032 312.941 533.17C310.845 532.309 308.946 531.031 307.357 529.416C305.769 527.8 304.524 525.88 303.698 523.77C302.872 521.66 302.481 519.405 302.55 517.14V469.8H282.09C282.09 485.773 282.094 501.763 282.1 517.77H282.08ZM395.77 554.87H416.25V490.25H449.65C453.191 489.992 456.741 490.593 460 492C465.94 494.54 469.6 501 469.59 507.32V554.91H490.07V507.28C490.203 499.976 488.208 492.791 484.33 486.6C479.23 478.6 470.63 473.22 461.52 470.94C455.78 469.46 449.83 469.83 443.96 469.79H406.07C400.68 469.62 395.66 474.34 395.77 479.79C395.77 504.8 395.8 529.83 395.79 554.87H395.77ZM618.04 496.19C617.934 506.856 617.934 517.55 618.04 528.27C618.146 532.303 619.158 536.26 621.002 539.849C622.845 543.438 625.473 546.565 628.69 549C634.296 553 641.057 555.055 647.94 554.85H683.17C690.464 554.897 697.543 552.38 703.17 547.74C709.17 542.64 712.17 534.74 712.26 526.97C712.32 517.57 712.26 508.17 712.26 498.77C712.18 489.65 708.26 480.22 700.68 474.87C695.959 471.491 690.286 469.701 684.48 469.76C672.06 469.7 659.64 469.76 647.23 469.76C643.516 469.775 639.829 470.389 636.31 471.58C631.133 473.35 626.616 476.651 623.356 481.046C620.097 485.44 618.25 490.722 618.06 496.19H618.04ZM647.94 490.19H683.77C686.19 490.19 688.85 490.91 690.35 492.96C691.73 494.82 691.84 497.21 691.85 499.44V526.14C691.85 528.45 691.29 530.96 689.49 532.54C687.69 534.12 685.35 534.38 683.13 534.36H647.27C644.88 534.36 642.27 533.97 640.54 532.17C638.81 530.37 638.43 527.85 638.47 525.5V498.06C638.33 494.91 640.14 491.59 643.29 490.7C644.824 490.288 646.415 490.129 648 490.23L647.94 490.19ZM759.38 509.65C745.72 524.8 731.79 539.71 718.11 554.83H746.29C755.43 544.97 764.45 535.01 773.59 525.15C782.65 535.05 791.724 544.936 800.81 554.81H829C815.214 539.816 801.417 524.836 787.61 509.87C799.857 496.463 812.11 483.076 824.37 469.71H796.22C788.6 477.91 781.04 486.17 773.42 494.37C765.88 486.15 758.337 477.93 750.79 469.71H722.79C735 483.07 747.15 496.43 759.41 509.69L759.38 509.65Z" fill="white"/>
</g>
<defs>
<clipPath id="clip0_2_3378">
<rect width="1024" height="1024" fill="white"/>
</clipPath>
</defs>
</svg>
